public/images/homePage/footer/orders.svg

<svg width="33" height="38" viewBox="0 0 33 38" fill="none" xmlns="http://www.w3.org/2000/svg">
<path d="M8.13388 32.3636C8.13388 33.1473 7.9871 33.8184 7.69354 34.3771C7.40234 34.9335 7.00462 35.3596 6.50036 35.6555C5.99846 35.9515 5.4291 36.0994 4.79226 36.0994C4.15542 36.0994 3.58487 35.9515 3.08061 35.6555C2.57872 35.3572 2.18099 34.9299 1.88743 34.3736C1.59624 33.8149 1.45064 33.1449 1.45064 32.3636C1.45064 31.58 1.59624 30.91 1.88743 30.3537C2.18099 29.795 2.57872 29.3677 3.08061 29.0717C3.58487 28.7758 4.15542 28.6278 4.79226 28.6278C5.4291 28.6278 5.99846 28.7758 6.50036 29.0717C7.00462 29.3677 7.40234 29.795 7.69354 30.3537C7.9871 30.91 8.13388 31.58 8.13388 32.3636ZM6.8093 32.3636C6.8093 31.812 6.72289 31.3468 6.55007 30.968C6.37962 30.5869 6.14287 30.2992 5.83984 30.1051C5.53681 29.9086 5.18762 29.8104 4.79226 29.8104C4.3969 29.8104 4.0477 29.9086 3.74467 30.1051C3.44164 30.2992 3.20372 30.5869 3.03089 30.968C2.86044 31.3468 2.77521 31.812 2.77521 32.3636C2.77521 32.9152 2.86044 33.3816 3.03089 33.7628C3.20372 34.1416 3.44164 34.4292 3.74467 34.6257C4.0477 34.8198 4.3969 34.9169 4.79226 34.9169C5.18762 34.9169 5.53681 34.8198 5.83984 34.6257C6.14287 34.4292 6.37962 34.1416 6.55007 33.7628C6.72289 33.3816 6.8093 32.9152 6.8093 32.3636ZM8.92262 36V30.5455H10.1691V31.4545H10.2259C10.3253 31.1397 10.4958 30.897 10.7373 30.7266C10.9811 30.5537 11.2593 30.4673 11.5718 30.4673C11.6428 30.4673 11.7221 30.4709 11.8097 30.478C11.8997 30.4827 11.9742 30.491 12.0334 30.5028V31.6854C11.979 31.6664 11.8926 31.6499 11.7742 31.6357C11.6582 31.6191 11.5457 31.6108 11.4368 31.6108C11.2025 31.6108 10.9917 31.6617 10.8047 31.7635C10.6201 31.8629 10.4745 32.0014 10.3679 32.179C10.2614 32.3565 10.2081 32.5613 10.2081 32.7933V36H8.92262ZM14.287 36.0959C13.8585 36.0959 13.475 35.9858 13.1364 35.7656C12.7979 35.5455 12.5304 35.2259 12.3339 34.8068C12.1374 34.3878 12.0391 33.8788 12.0391 33.2798C12.0391 32.6738 12.1386 32.1624 12.3374 31.7457C12.5387 31.3267 12.8097 31.0107 13.1506 30.7976C13.4915 30.5821 13.8715 30.4744 14.2906 30.4744C14.6102 30.4744 14.8729 30.5289 15.0789 30.6378C15.2849 30.7443 15.4482 30.8733 15.569 31.0249C15.6897 31.174 15.7832 31.3149 15.8495 31.4474H15.9028V28.7273H17.1918V36H15.9276V35.1406H15.8495C15.7832 35.2732 15.6873 35.4141 15.5619 35.5632C15.4364 35.71 15.2707 35.8355 15.0647 35.9396C14.8587 36.0438 14.5995 36.0959 14.287 36.0959ZM14.6457 35.0412C14.9179 35.0412 15.1499 34.9678 15.3417 34.821C15.5335 34.6719 15.679 34.4647 15.7785 34.1996C15.8779 33.9344 15.9276 33.6255 15.9276 33.2727C15.9276 32.92 15.8779 32.6134 15.7785 32.353C15.6814 32.0926 15.537 31.8902 15.3452 31.7457C15.1558 31.6013 14.9227 31.5291 14.6457 31.5291C14.3592 31.5291 14.1201 31.6037 13.9283 31.7528C13.7366 31.902 13.5922 32.108 13.4951 32.3707C13.398 32.6335 13.3495 32.9342 13.3495 33.2727C13.3495 33.6136 13.398 33.9179 13.4951 34.1854C13.5945 34.4505 13.7401 34.66 13.9319 34.8139C14.126 34.9654 14.3639 35.0412 14.6457 35.0412ZM20.5765 36.1065C20.0296 36.1065 19.5573 35.9929 19.1596 35.7656C18.7642 35.536 18.46 35.2116 18.2469 34.7926C18.0338 34.3712 17.9273 33.8752 17.9273 33.3047C17.9273 32.7436 18.0338 32.2512 18.2469 31.8274C18.4623 31.4013 18.763 31.0698 19.1489 30.8331C19.5348 30.594 19.9882 30.4744 20.509 30.4744C20.8452 30.4744 21.1624 30.5289 21.4607 30.6378C21.7614 30.7443 22.0265 30.91 22.2561 31.1349C22.4882 31.3598 22.6704 31.6463 22.803 31.9943C22.9356 32.34 23.0019 32.7519 23.0019 33.2301V33.6243H18.531V32.7578H21.7696C21.7673 32.5116 21.714 32.2926 21.6098 32.1009C21.5057 31.9067 21.3601 31.754 21.173 31.6428C20.9884 31.5315 20.773 31.4759 20.5267 31.4759C20.264 31.4759 20.0331 31.5398 19.8343 31.6676C19.6354 31.7931 19.4803 31.9588 19.3691 32.1648C19.2602 32.3684 19.2045 32.5921 19.2022 32.8359V33.5923C19.2022 33.9096 19.2602 34.1818 19.3762 34.4091C19.4922 34.634 19.6543 34.8068 19.8627 34.9276C20.071 35.0459 20.3149 35.1051 20.5942 35.1051C20.7812 35.1051 20.9505 35.0791 21.102 35.027C21.2535 34.9725 21.3849 34.8932 21.4962 34.7891C21.6075 34.6849 21.6915 34.5559 21.7483 34.402L22.9486 34.5369C22.8729 34.8542 22.7284 35.1312 22.5154 35.3679C22.3047 35.6023 22.0348 35.7846 21.7057 35.9148C21.3766 36.0426 21.0002 36.1065 20.5765 36.1065ZM23.6894 36V30.5455H24.9359V31.4545H24.9927C25.0921 31.1397 25.2626 30.897 25.504 30.7266C25.7479 30.5537 26.0261 30.4673 26.3386 30.4673C26.4096 30.4673 26.4889 30.4709 26.5765 30.478C26.6665 30.4827 26.741 30.491 26.8002 30.5028V31.6854C26.7458 31.6664 26.6594 31.6499 26.541 31.6357C26.425 31.6191 26.3125 31.6108 26.2036 31.6108C25.9692 31.6108 25.7585 31.6617 25.5715 31.7635C25.3869 31.8629 25.2413 32.0014 25.1347 32.179C25.0282 32.3565 24.9749 32.5613 24.9749 32.7933V36H23.6894ZM31.5653 31.9872L30.3935 32.1151C30.3603 31.9967 30.3023 31.8854 30.2195 31.7812C30.139 31.6771 30.0301 31.593 29.8928 31.5291C29.7554 31.4652 29.5874 31.4332 29.3885 31.4332C29.121 31.4332 28.8961 31.4912 28.7138 31.6072C28.5339 31.7232 28.4451 31.8736 28.4474 32.0582C28.4451 32.2169 28.5031 32.3459 28.6214 32.4453C28.7422 32.5447 28.9411 32.6264 29.218 32.6903L30.1484 32.8892C30.6645 33.0005 31.0481 33.1768 31.299 33.4183C31.5523 33.6598 31.6802 33.9759 31.6825 34.3665C31.6802 34.7098 31.5795 35.0128 31.3807 35.2756C31.1842 35.536 30.9107 35.7396 30.5604 35.8864C30.21 36.0331 29.8075 36.1065 29.353 36.1065C28.6854 36.1065 28.148 35.9669 27.7408 35.6875C27.3336 35.4058 27.0909 35.014 27.0128 34.5121L28.2663 34.3913C28.3232 34.6375 28.4439 34.8234 28.6286 34.9489C28.8132 35.0743 29.0535 35.1371 29.3494 35.1371C29.6548 35.1371 29.8999 35.0743 30.0845 34.9489C30.2715 34.8234 30.3651 34.6683 30.3651 34.4837C30.3651 34.3274 30.3047 34.1984 30.1839 34.0966C30.0656 33.9948 29.8809 33.9167 29.63 33.8622L28.6996 33.6669C28.1764 33.558 27.7893 33.3745 27.5384 33.1165C27.2874 32.8561 27.1631 32.527 27.1655 32.1293C27.1631 31.7931 27.2543 31.5019 27.4389 31.2557C27.6259 31.0071 27.8852 30.8153 28.2166 30.6804C28.5504 30.5431 28.9351 30.4744 29.3707 30.4744C30.0099 30.4744 30.513 30.6106 30.88 30.8828C31.2493 31.1551 31.4777 31.5232 31.5653 31.9872Z" fill="#152536"/>
<path d="M4 3.75C4 3.55109 4.07902 3.36032 4.21967 3.21967C4.36032 3.07902 4.55109 3 4.75 3H7C7.1673 3.00005 7.32978 3.05603 7.4616 3.15904C7.59342 3.26205 7.68701 3.40618 7.7275 3.5685L8.335 6H25.75C25.8639 6.00003 25.9763 6.02602 26.0787 6.07598C26.1811 6.12594 26.2708 6.19857 26.3409 6.28836C26.411 6.37814 26.4598 6.48272 26.4834 6.59416C26.5071 6.7056 26.5051 6.82096 26.4775 6.9315L24.2275 15.9315C24.187 16.0938 24.0934 16.238 23.9616 16.341C23.8298 16.444 23.6673 16.5 23.5 16.5H10C9.8327 16.5 9.67022 16.444 9.5384 16.341C9.40658 16.238 9.31299 16.0938 9.2725 15.9315L6.415 4.5H4.75C4.55109 4.5 4.36032 4.42098 4.21967 4.28033C4.07902 4.13968 4 3.94891 4 3.75ZM8.71 7.5L10.585 15H22.915L24.79 7.5H8.71ZM11.5 19.5C11.1022 19.5 10.7206 19.658 10.4393 19.9393C10.158 20.2206 10 20.6022 10 21C10 21.3978 10.158 21.7794 10.4393 22.0607C10.7206 22.342 11.1022 22.5 11.5 22.5C11.8978 22.5 12.2794 22.342 12.5607 22.0607C12.842 21.7794 13 21.3978 13 21C13 20.6022 12.842 20.2206 12.5607 19.9393C12.2794 19.658 11.8978 19.5 11.5 19.5ZM8.5 21C8.5 20.2044 8.81607 19.4413 9.37868 18.8787C9.94129 18.3161 10.7044 18 11.5 18C12.2956 18 13.0587 18.3161 13.6213 18.8787C14.1839 19.4413 14.5 20.2044 14.5 21C14.5 21.7956 14.1839 22.5587 13.6213 23.1213C13.0587 23.6839 12.2956 24 11.5 24C10.7044 24 9.94129 23.6839 9.37868 23.1213C8.81607 22.5587 8.5 21.7956 8.5 21ZM22 19.5C21.6022 19.5 21.2206 19.658 20.9393 19.9393C20.658 20.2206 20.5 20.6022 20.5 21C20.5 21.3978 20.658 21.7794 20.9393 22.0607C21.2206 22.342 21.6022 22.5 22 22.5C22.3978 22.5 22.7794 22.342 23.0607 22.0607C23.342 21.7794 23.5 21.3978 23.5 21C23.5 20.6022 23.342 20.2206 23.0607 19.9393C22.7794 19.658 22.3978 19.5 22 19.5ZM19 21C19 20.2044 19.3161 19.4413 19.8787 18.8787C20.4413 18.3161 21.2044 18 22 18C22.7956 18 23.5587 18.3161 24.1213 18.8787C24.6839 19.4413 25 20.2044 25 21C25 21.7956 24.6839 22.5587 24.1213 23.1213C23.5587 23.6839 22.7956 24 22 24C21.2044 24 20.4413 23.6839 19.8787 23.1213C19.3161 22.5587 19 21.7956 19 21Z" fill="#212529"/>
</svg>

<svg version="1.2" xmlns="http://www.w3.org/2000/svg" viewBox="0 0 33 38" width="33" height="38"><defs><image  width="17" height="9" id="img1" href="data:image/png;base64,iVBORw0KGgoAAAANSUhEUgAAABEAAAAJCAMAAADjNjc+AAAAAXNSR0IB2cksfwAAAFpQTFRFAAAAAAAAAAAAAAAAAAAAAAAAAAAAAAAAAAAAAAAAAAAAAAAAAAAAAAAAAAAAAAAAAAAAAAAAAAAAAAAAAAAAAAAAAAAAAAAAAAAAAAAAAAAAAAAAAAAAAAAAi0leUQAAAB50Uk5TAAhAGA6w7vDW//JB7fzq5sH7O5f4X90J/vT6/fZ29zESowAAAFZJREFUeJxVzTkKgDAARNH5aJAgGkTE+5/NTqxUxCUEl0KS3wy8ZtAbhG+V4THwgP6gDErKUOUTMcidiRSo2ROxqN1iKCfUrbFUI+pnyXEduV3q53u4AYGhD1D2MmQeAAAAAElFTkSuQmCC"/></defs><style>.a{fill:#152536}.b{fill:#212529}</style><path class="a" d="m8.1 32.4q0 1.1-0.4 2-0.4 0.8-1.2 1.3-0.8 0.4-1.7 0.4-1 0-1.7-0.4-0.8-0.5-1.2-1.3-0.4-0.9-0.4-2 0-1.2 0.4-2 0.4-0.9 1.2-1.3 0.7-0.5 1.7-0.5 0.9 0 1.7 0.5 0.8 0.4 1.2 1.3 0.4 0.8 0.4 2zm-1.3 0q0-0.9-0.2-1.4-0.3-0.6-0.8-0.9-0.4-0.3-1-0.3-0.6 0-1.1 0.3-0.4 0.3-0.7 0.9-0.2 0.5-0.2 1.4 0 0.8 0.2 1.4 0.3 0.5 0.7 0.8 0.5 0.3 1.1 0.3 0.6 0 1-0.3 0.5-0.3 0.8-0.8 0.2-0.6 0.2-1.4zm2.1 3.6v-5.5h1.3v1q0.2-0.5 0.5-0.8 0.4-0.2 0.9-0.2 0.1 0 0.2 0 0.1 0 0.2 0v1.2q0 0-0.2-0.1-0.2 0-0.4 0-0.3 0-0.6 0.2-0.3 0.1-0.4 0.4-0.2 0.2-0.2 0.6v3.2zm5.4 0.1q-0.7 0-1.2-0.3-0.5-0.4-0.8-1-0.3-0.6-0.3-1.5 0-0.9 0.3-1.6 0.3-0.6 0.8-0.9 0.5-0.3 1.2-0.3 0.5 0 0.8 0.1 0.3 0.2 0.5 0.4 0.1 0.2 0.2 0.4h0.1v-2.7h1.3v7.3h-1.3v-0.9h-0.1q-0.1 0.2-0.3 0.5-0.1 0.2-0.4 0.3-0.4 0.2-0.8 0.2zm0.3-1.1q0.4 0 0.7-0.2 0.3-0.2 0.5-0.6 0.1-0.4 0.1-0.9 0-0.6-0.1-0.9-0.2-0.4-0.5-0.7-0.3-0.2-0.7-0.2-0.4 0-0.7 0.3-0.3 0.2-0.4 0.6-0.2 0.4-0.2 0.9 0 0.5 0.2 0.9 0.1 0.4 0.4 0.6 0.3 0.2 0.7 0.2zm6 1.1q-0.9 0-1.5-0.3-0.5-0.4-0.9-1-0.3-0.6-0.3-1.5 0-0.8 0.3-1.5 0.4-0.6 0.9-1 0.6-0.3 1.4-0.3 0.5 0 0.9 0.1 0.5 0.2 0.8 0.5 0.4 0.4 0.6 0.9 0.2 0.5 0.2 1.2v0.4h-4.5v-0.8h3.3q0-0.4-0.2-0.7-0.2-0.3-0.4-0.5-0.3-0.1-0.7-0.1-0.4 0-0.7 0.2-0.3 0.2-0.4 0.5-0.2 0.3-0.2 0.6v0.8q0 0.5 0.2 0.8 0.1 0.3 0.4 0.5 0.4 0.2 0.8 0.2 0.3 0 0.5-0.1 0.2-0.1 0.4-0.2 0.1-0.2 0.2-0.4l1.2 0.1q-0.1 0.5-0.4 0.9-0.3 0.3-0.8 0.5-0.5 0.2-1.1 0.2zm3.1-0.1v-5.5h1.2v1h0.1q0.1-0.5 0.5-0.8 0.4-0.2 0.8-0.2 0.1 0 0.3 0 0.1 0 0.2 0v1.2q-0.1 0-0.3-0.1-0.1 0-0.3 0-0.4 0-0.6 0.2-0.3 0.1-0.5 0.4-0.1 0.2-0.1 0.6v3.2zm7.8-4l-1.1 0.1q-0.1-0.2-0.2-0.3-0.1-0.2-0.3-0.3-0.2-0.1-0.5-0.1-0.4 0-0.7 0.2-0.3 0.2-0.3 0.5 0 0.2 0.2 0.3 0.2 0.2 0.6 0.3l0.9 0.2q0.8 0.2 1.2 0.5 0.3 0.4 0.4 1-0.1 0.5-0.3 0.9-0.3 0.4-0.9 0.6-0.5 0.2-1.2 0.2-1 0-1.6-0.4-0.6-0.4-0.7-1.2l1.2-0.1q0.1 0.4 0.4 0.5 0.3 0.2 0.7 0.2 0.5 0 0.8-0.2 0.2-0.1 0.2-0.4 0-0.3-0.1-0.4-0.2-0.2-0.6-0.2l-0.9-0.2q-0.8-0.2-1.2-0.6-0.4-0.4-0.4-1 0-0.5 0.3-0.8 0.3-0.4 0.8-0.6 0.5-0.2 1.1-0.2 1 0 1.6 0.4 0.5 0.4 0.6 1.1z"/><use  href="#img1" x="8" y="6"/><path class="b" d="m4 3.8q0-0.4 0.2-0.6 0.2-0.2 0.6-0.2h2.2q0.3 0 0.5 0.2 0.2 0.1 0.2 0.4l0.6 2.4h17.4q0.2 0 0.4 0.1 0.1 0.1 0.2 0.2 0.1 0.1 0.2 0.3 0 0.2 0 0.3l-2.3 9q0 0.3-0.2 0.4-0.2 0.2-0.5 0.2h-13.5q-0.3 0-0.5-0.2-0.2-0.1-0.2-0.4l-2.9-11.4h-1.6q-0.4 0-0.6-0.2-0.2-0.2-0.2-0.5zm4.7 3.7l1.9 7.5h12.3l1.9-7.5zm-0.2 13.5c0-0.8 0.3-1.6 0.9-2.1 0.5-0.6 1.3-0.9 2.1-0.9 0.8 0 1.5 0.3 2.1 0.9 0.6 0.5 0.9 1.3 0.9 2.1 0 0.8-0.3 1.6-0.9 2.1-0.6 0.6-1.3 0.9-2.1 0.9-0.8 0-1.6-0.3-2.1-0.9-0.6-0.5-0.9-1.3-0.9-2.1zm3-1.5c-0.4 0-0.8 0.2-1.1 0.4-0.3 0.3-0.4 0.7-0.4 1.1 0 0.4 0.1 0.8 0.4 1.1 0.3 0.2 0.7 0.4 1.1 0.4 0.4 0 0.8-0.2 1-0.4 0.3-0.3 0.5-0.7 0.5-1.1 0-0.4-0.2-0.8-0.5-1.1-0.2-0.2-0.6-0.4-1-0.4zm7.5 1.5c0-0.8 0.3-1.6 0.9-2.1 0.5-0.6 1.3-0.9 2.1-0.9 0.8 0 1.5 0.3 2.1 0.9 0.6 0.5 0.9 1.3 0.9 2.1 0 0.8-0.3 1.6-0.9 2.1-0.6 0.6-1.3 0.9-2.1 0.9-0.8 0-1.6-0.3-2.1-0.9-0.6-0.5-0.9-1.3-0.9-2.1zm3-1.5c-0.4 0-0.8 0.2-1.1 0.4-0.3 0.3-0.4 0.7-0.4 1.1 0 0.4 0.1 0.8 0.4 1.1 0.3 0.2 0.7 0.4 1.1 0.4 0.4 0 0.8-0.2 1-0.4 0.3-0.3 0.5-0.7 0.5-1.1 0-0.4-0.2-0.8-0.5-1.1-0.2-0.2-0.6-0.4-1-0.4z"/></svg>
